!!!!SEGMENT: pl-sa--552-a-ix-32--029_anonim--gavotte.krn
!!!cenid: 18xx:540
!!!COM: Anonim
!!!COM-rismID: pe30004985
!!!CDT:
!!!CNT:
!!!OTL: Gavotte
!!!PDT:
!!!AGN: Secular; Gavotte
!!!YEC: Copyright 2022 Narodowy Instytut Fryderyka Chopina (https://polishscores.org)
!!!YEM: License CC-BY-4.0 (https://creativecommons.org/licenses/by/4.0)
!!!SMS-siglum: PL-SA
!!!SMS-shelfmark: 552/A IX 32
!!!SMS-shelfwork: 029 W
!!!SMS-variant:
!!!SMS-altvar:
!!!NIFC-rismSourceID: 1001069571
!!!NIFC-rismChildID: 1001069571
!!!NIFC-islandoraID: none
!!!URL-pdf-islandora:
!!!URL-scan: https://bc.bdsandomierz.pl/dlibra/publication/1308/edition/1276/content @EN{Scan in the Sandomierz Diocese Digital Library} @PL{Skany w portalu Cyfrowa Biblioteka Diecezjalna w Sandomierzu}
!!!IIIF:
!!!ONB-nifc: Str. 14, s. 3-5
!!!AIN: 2 empty
!!!key:
**kern	**kern
*part2	*part1
*staff2	*staff1
*Iempty	*Iempty
*I"	*I"
*I'keyb	*I'keyb
*clefF4	*clefG2
*k[]	*k[]
*C:	*C:
*M2/4	*M2/4
=1	=1
!	!LO:TX:i:a:t=Gavotte:rj
!	!LO:TX:b:t=P:problem= jedno metrum pomiędzy pięcioliniami z kreską ułamkową
8C\L	4e/ 4cc
8G\	.
8E\	4e/ 4cc
8G\J	.
=2	=2
*rep	*
8C\L	4.e/ 4.cc
8G\	.
8E\	.
8G\J	16dd\LL
.	16ee\JJ
*Xrep	*
=3	=3
8GG\L	8ff\L
8G\	8ee\
8D\	8dd\
8G\J	8cc\J
=4	=4
*rep	*
8GG\L	8b\L
8G\	8a\
8D\	8b\
8G\J	8g\J
*Xrep	*
=5	=5
8C\L	4e/ 4cc
8G\	.
8E\	4e/ 4cc
8G\J	.
=6	=6
*rep	*
8C\L	4.e/ 4.cc
8G\	.
8E\	.
8G\J	16dd\LL
.	16ee\JJ
*Xrep	*
=7	=7
8GG\L	8dd\L
8G\	8cc\
8D\	8b\
8G\J	8a\J
=8	=8
4GG\ 4G	8a/L
.	8g/J
4GG\ 4G	4g\
=9:|!|:	=9:|!|:
8G\L	4dd\
8f\	.
8d\	8ff\L
8f\J	8dd\J
=10	=10
*rep	*
8G\L	8g/L 8b
8f\	8g/J 8b
8d\	4g/ 4b
8f\J	.
*Xrep	*
=11	=11
8G\L	4cc\
8e\	.
8c\	8ee\L
8e\J	8cc\J
=12	=12
*rep	*
8G\L	8g/L
8e\	8g/J
8c\	4g/
8e\J	.
*Xrep	*
!!LO:LB:g=original
=13:|!	=13:|!
4GG/ 4G	8g\L
.	8b\
4G\ 4B 4d	8dd\
.	8b\J
=14	=14
4G\ 4B 4d	8ff\L
.	8dd\
*rep	*
4G\ 4B 4d	8b\
.	8g\J
*Xrep	*
=15	=15
4C\ 4c	4e/ 4cc
4C\ 4c	4e/ 4cc
=16	=16
4C\ 4c	4e/ 4cc
4r	4r
=17-	=17:|!|:
*k[b-]	*k[b-]
*F:	*F:
!	!LO:TX:a:t=P:problem=nie wyświetlają się znaki
4FF/ 4F	4a\ 4cc 4ff
4F\ 4A 4c	4a\ 4ff
=18	=18
4F\ 4A 4c	4.a\ 4.ff
*rep	*
4F\ 4A 4c	.
.	16ff\LL 16gg
.	16aa\JJ
*Xrep	*
=19	=19
4C/	8bb-\L
.	8aa\
4G\ 4B- 4c	8gg\
.	8ff\J
=20	=20
4G\ 4B- 4c	8ee\L
.	8dd\
*rep	*
4G\ 4B- 4c	8ee\
.	8cc\J
*Xrep	*
=21	=21
4FF/ 4F	4a\ 4ff
4F\ 4A 4c	4a\ 4ff
=22	=22
4F\ 4A 4c	4.a\ 4.ff
*rep	*
4F\ 4A 4c	.
.	16gg\LL
.	16aa\JJ
*Xrep	*
=23	=23
4C\	8gg\L
.	8ff\
4G\ 4c	8ee\
.	8dd\J
=24	=24
4C\ 4c	8dd\L
.	8cc\J
4C\ 4c	4cc\
=25:|!|:	=25:|!|:
*clefG2	*
8c/L	4gg\
8g/	.
8e/	8bb-\L
8g/J	8gg\J
=26	=26
*rep	*
8c/L	8cc\L 8ee
8g/	8cc\J 8ee
8e/	4cc\ 4ee
8g/J	.
*Xrep	*
=27	=27
8c/L	4ff\
8a/	.
8f/	8aa\L
8a/J	8ff\J
=28	=28
*rep	*
8c/L	8cc\L
8a/	8cc\J
8f/	4cc\
8a/J	.
*Xrep	*
!LO:CL:ed	!
*clefF4	*
!!LO:LB:g=original
=29:|!	=29:|!
4C/	8cc\L
.	8ee\
4G\ 4B- 4c	8gg\
.	8ee\J
=30	=30
4G\ 4B- 4c	8bb-\L
.	8gg\
*rep	*
4G\ 4B- 4c	8ee\
.	8cc\J
*Xrep	*
=31	=31
4FF/ 4F	4a\ 4ff
4FF/ 4F	4a\ 4ff
=32	=32
4FF/ 4F	4a\ 4ff
4r	4r
!	!LO:TX:a:t=P:problem=kreska z obustronną repetycją
!	!LO:TX:b:t=P:problem=napis za kreską
!	!LO:TX:i:b:t=Menuette Da Capo
==	==
*-	*-
!!!system-decoration: [(s1,s2)]
!!!RDF**kern: > = above
!!!RDF**kern: < = below
!!!EED: Mateusz Mrugas
!!!EEV: 2020-12-13
!!!ENC: Marta Chmielewska
!!!END: 2020-06-18
